src/img/payment-card.svg

<svg fill="none" height="16" viewBox="0 0 16 16" width="16" xmlns="http://www.w3.org/2000/svg" xmlns:xlink="http://www.w3.org/1999/xlink"><mask id="a" height="16" maskUnits="userSpaceOnUse" width="16" x="0" y="0"><path clip-rule="evenodd" d="m1.66666 3.33325h12.66664c.1842 0 .3334.14917.3334.33334v8.33331c0 .3681-.2986.6667-.6667.6667h-12.00001c-.36812 0-.66666-.2986-.66666-.6667v-8.33331c0-.18417.14916-.33334.33333-.33334zm.33333 8.66665h12.00001v-5.99998h-12.00001zm12.00001-6.66665h-12.00001v-1.33333h12.00001zm-7.50001 5.33335h-3c-.09208 0-.16666-.0746-.16666-.1667v-.3333c0-.0921.07458-.16668.16666-.16668h3c.09209 0 .16667.07458.16667.16668v.3333c0 .0921-.07458.1667-.16667.1667zm3 0h3.00001c.0921 0 .1667-.0746.1667-.1667v-.3333c0-.0921-.0746-.16668-.1667-.16668h-3.00001c-.09208 0-.16666.07458-.16666.16668v.3333c0 .0921.07458.1667.16666.1667zm-1.66666-2.00001h-4.33334c-.09208 0-.16666-.07459-.16666-.16667v-.33333c0-.09209.07458-.16667.16666-.16667h4.33334c.09208 0 .16666.07458.16666.16667v.33333c0 .09208-.07458.16667-.16666.16667zm1.83333 0h2.66664c.1842 0 .3334-.14917.3334-.33334v-1.33333c0-.18417-.1492-.33333-.3334-.33333h-2.66664c-.18417 0-.33333.14916-.33333.33333v1.33333c0 .18417.14916.33334.33333.33334zm2.33334-1.33334h-2v.66667h2z" fill="#000" fill-rule="evenodd"/></mask><g mask="url(#a)"><path d="m0 0h16v16h-16z" fill="#6f6f6f"/></g></svg>

<svg width="16" height="16" viewBox="0 0 16 16" fill="none" xmlns="http://www.w3.org/2000/svg">
<mask id="mask0" mask-type="alpha" maskUnits="userSpaceOnUse" x="0" y="0" width="16" height="16">
<path fill-rule="evenodd" clip-rule="evenodd" d="M1.66666 3.33325H14.3333C14.5175 3.33325 14.6667 3.48242 14.6667 3.66659V11.9999C14.6667 12.368 14.3681 12.6666 14 12.6666H1.99999C1.63187 12.6666 1.33333 12.368 1.33333 11.9999V3.66659C1.33333 3.48242 1.48249 3.33325 1.66666 3.33325ZM1.99999 11.9999H14V5.99992H1.99999V11.9999ZM14 5.33325H1.99999V3.99992H14V5.33325ZM6.49999 10.6666H3.49999C3.40791 10.6666 3.33333 10.592 3.33333 10.4999V10.1666C3.33333 10.0745 3.40791 9.99992 3.49999 9.99992H6.49999C6.59208 9.99992 6.66666 10.0745 6.66666 10.1666V10.4999C6.66666 10.592 6.59208 10.6666 6.49999 10.6666ZM9.49999 10.6666H12.5C12.5921 10.6666 12.6667 10.592 12.6667 10.4999V10.1666C12.6667 10.0745 12.5921 9.99992 12.5 9.99992H9.49999C9.40791 9.99992 9.33333 10.0745 9.33333 10.1666V10.4999C9.33333 10.592 9.40791 10.6666 9.49999 10.6666ZM7.83333 8.66659H3.49999C3.40791 8.66659 3.33333 8.592 3.33333 8.49992V8.16659C3.33333 8.0745 3.40791 7.99992 3.49999 7.99992H7.83333C7.92541 7.99992 7.99999 8.0745 7.99999 8.16659V8.49992C7.99999 8.592 7.92541 8.66659 7.83333 8.66659ZM9.66666 8.66659H12.3333C12.5175 8.66659 12.6667 8.51742 12.6667 8.33325V6.99992C12.6667 6.81575 12.5175 6.66659 12.3333 6.66659H9.66666C9.48249 6.66659 9.33333 6.81575 9.33333 6.99992V8.33325C9.33333 8.51742 9.48249 8.66659 9.66666 8.66659ZM12 7.33325H10V7.99992H12V7.33325Z" fill="black"/>
</mask>
<g mask="url(#mask0)">
<rect width="16" height="16" fill="#6F6F6F"/>
</g>
</svg>
